X: 12252
T: Fairhaired Boy, The
R: jig
M: 6/8
K: Adorian
EAA AGE|GAB c2 d|e/f/ge ded|BAB GED|
EAA AGE|GAB c2 d|e/f/ge ded|BAG A3:|
|:eaa aga|bab ged|eag e2 A|BAB GED|
EAA AGE|GAB c2 d|e/f/ge ded|BAG A3:|

